X:277
T: BEKRAENZT MIT LAUB DEN LIEBEN VOLLEN BECHER
N: B0329
O: Europa, Mitteleuropa, Deutschland
R: Trink - Lied
M: 2/4
L: 1/8
K: Bb
F | B2B2 | B3
G | FDGF | FED
B | dBfd | c3
B | AFc2c2 | F2z
F | G2A2 | B3
c | dBed | dcz
f | edcB | AGF
B | c2A2 | B2z

